X:1
T:Disguised Sailor
M:3/4
L:1/4
K:G
 D| B G A|G/2-E/2 D D| E G F| G z G| c d e| d B e/2e/2|d/2-B/2 A G|\
 A z G| cc/2-B/2 c/2c/2| c d e| d B G| A z G/2A/2| B G G|A/2-G/2 E D|\
 E G F| G z||
